X:232
T:Reel 232
M:4/4
K:Emin
L:1/8
d^c|:BE (3FED BAFA|BE (3EDE dGAF|BEE^c dcdA|FEFD BEEA:|Bee^c dcBA|Beef gfed|Bddc d2de|fdec dBAG|BE (3EDE dBAd|Beec defe|dBAF DEFG|AcdB AFDE| (3efe ed Beef|edfd Bdfd|eefd edBc|dBAc FEEA|edBd defe|dBfg afdf|edec dcde|fdec dBAF|
